folder-key-outline.svg

<svg fill="currentColor" viewBox="0 0 24 24"><path d="M20 18H4V8h16m0-2h-8l-2-2H4c-1.1 0-2 .9-2 2v12c0 1.1.9 2 2 2h16c1.1 0 2-.9 2-2V8c0-1.1-.9-2-2-2m-7.2 6c-.4-1.2-1.5-2-2.8-2-1.7 0-3 1.3-3 3s1.3 3 3 3c1.3 0 2.4-.8 2.8-2H15v2h2v-2h2v-2zM10 14c-.6 0-1-.4-1-1s.4-1 1-1 1 .4 1 1-.4 1-1 1"/></svg>

<svg  viewBox="0 0 24 24" fill="currentColor"><path  d="M20 18H4V8H20M20 6H12L10 4H4C2.9 4 2 4.9 2 6V18C2 19.1 2.9 20 4 20H20C21.1 20 22 19.1 22 18V8C22 6.9 21.1 6 20 6M12.8 12C12.4 10.8 11.3 10 10 10C8.3 10 7 11.3 7 13S8.3 16 10 16C11.3 16 12.4 15.2 12.8 14H15V16H17V14H19V12H12.8M10 14C9.4 14 9 13.6 9 13C9 12.4 9.4 12 10 12S11 12.4 11 13 10.6 14 10 14Z"/></svg>
